resources/svg/dribbble.svg

<svg xmlns="http://www.w3.org/2000/svg" viewBox="0 0 15 15" fill="currentColor"><path d="M4.04357 0.842239C1.97417 1.91881 0.469797 3.9319 0.0922976 6.31967H0.5269C3.33245 6.25492 5.53147 6.0116 7.32636 5.46191C6.54621 4.07884 5.59515 2.72168 4.45344 1.34257L4.4518 1.34058L4.04357 0.842239Z" fill="black"/><path d="M0.00206259 7.31976C0.000649479 7.37967 -6.10352e-05 7.43975 -6.10352e-05 7.5C-6.10352e-05 9.51677 0.79607 11.3477 2.09118 12.6956L2.25242 12.3719C2.26128 12.3541 2.27119 12.3369 2.2821 12.3203C3.93914 9.7984 5.81649 8.2981 7.91356 7.62493C8.05622 7.57913 8.19959 7.53726 8.34366 7.49922C8.17654 7.11593 7.99765 6.73623 7.80662 6.35917C5.84191 6.99159 3.47954 7.25207 0.544143 7.31953L0.532654 7.3198L0.00206259 7.31976Z" fill="black"/><path d="M2.8608 13.3934C4.13727 14.3996 5.74852 15 7.49994 15C8.39274 15 9.24911 14.844 10.0433 14.5577V13.8371C9.79881 11.9025 9.37009 10.1272 8.72521 8.43394C8.55497 8.47577 8.3863 8.52343 8.2192 8.57707C6.39653 9.16217 4.69386 10.4797 3.13412 12.8447L2.8608 13.3934Z" fill="black"/><path d="M11.0433 14.1118C12.9679 13.0782 14.3891 11.2288 14.8445 9.02623L14.2799 8.77093C12.6537 8.29307 11.1386 8.09673 9.72668 8.25607C10.3652 9.97658 10.7938 11.7824 11.0394 13.7436C11.042 13.7642 11.0433 13.7849 11.0433 13.8057V14.1118Z" fill="black"/><path d="M14.9841 7.99184C14.9946 7.82925 14.9999 7.66525 14.9999 7.5C14.9999 5.62777 14.3138 3.91572 13.1794 2.60156L12.8823 2.93071C11.7128 4.3544 10.3764 5.34065 8.75193 6.01308C8.96402 6.43702 9.16161 6.8645 9.34517 7.2967C11.0173 7.05773 12.7745 7.2826 14.5964 7.82166C14.6183 7.82814 14.6397 7.83611 14.6605 7.84553L14.9841 7.99184Z" fill="black"/><path d="M12.4759 1.88844C11.1519 0.71352 9.40921 0 7.49994 0C6.62221 0 5.77968 0.150798 4.99685 0.427899L5.22456 0.705876C6.4442 2.17922 7.45704 3.63454 8.2832 5.1242C9.82571 4.50096 11.0486 3.59004 12.1166 2.28743C12.1216 2.28132 12.1268 2.27533 12.1321 2.26947L12.4759 1.88844Z" fill="black"/></svg>

<svg xmlns="http://www.w3.org/2000/svg" viewBox="0 0 15 15" fill="currentColor"><path d="M4.044.842A7.508 7.508 0 00.092 6.32h.435c2.805-.065 5.004-.308 6.8-.858-.78-1.383-1.732-2.74-2.874-4.12l-.001-.001-.408-.499zM.002 7.32L0 7.5c0 2.017.796 3.848 2.091 5.196l.161-.324a.498.498 0 01.03-.052C3.94 9.798 5.816 8.298 7.914 7.625c.142-.046.286-.088.43-.126a21.803 21.803 0 00-.537-1.14c-1.965.633-4.327.893-7.263.96H.003z" fill="currentColor"/><path d="M2.86 13.393A7.468 7.468 0 007.5 15c.893 0 1.75-.156 2.543-.442v-.72c-.244-1.935-.673-3.71-1.318-5.404-.17.042-.339.09-.506.143-1.822.585-3.525 1.903-5.085 4.268l-.273.548zm8.183.719a7.512 7.512 0 003.802-5.086l-.565-.255c-1.626-.478-3.141-.674-4.553-.515.638 1.72 1.067 3.526 1.312 5.488.003.02.004.04.004.062v.306zm3.941-6.12a7.471 7.471 0 00-1.805-5.39l-.297.329c-1.17 1.423-2.506 2.41-4.13 3.082.212.424.41.851.593 1.284 1.672-.24 3.43-.014 5.251.525a.497.497 0 01.065.024l.323.146zm-2.508-6.104A7.472 7.472 0 007.5 0c-.878 0-1.72.15-2.503.428l.228.278c1.22 1.473 2.232 2.929 3.058 4.418 1.543-.623 2.766-1.534 3.834-2.837a.48.48 0 01.015-.018l.344-.38z" fill="currentColor"/></svg>
